public/images/skills-light/nextjs.svg

<svg width="394" height="80" viewBox="0 0 394 80" fill="none" xmlns="http://www.w3.org/2000/svg">
<path d="M261.919 0.0330722H330.547V12.7H303.323V79.339H289.71V12.7H261.919V0.0330722Z" fill="black"/>
<path d="M149.052 0.0330722V12.7H94.0421V33.0772H138.281V45.7441H94.0421V66.6721H149.052V79.339H80.43V12.7H80.4243V0.0330722H149.052Z" fill="black"/>
<path d="M183.32 0.0661486H165.506L229.312 79.3721H247.178L215.271 39.7464L247.127 0.126654L229.312 0.154184L206.352 28.6697L183.32 0.0661486Z" fill="black"/>
<path d="M201.6 56.7148L192.679 45.6229L165.455 79.4326H183.32L201.6 56.7148Z" fill="black"/>
<path fill-rule="evenodd" clip-rule="evenodd" d="M80.907 79.339L17.0151 0H0V79.3059H13.6121V16.9516L63.8067 79.339H80.907Z" fill="black"/>
<path d="M333.607 78.8546C332.61 78.8546 331.762 78.5093 331.052 77.8186C330.342 77.1279 329.991 76.2917 330 75.3011C329.991 74.3377 330.342 73.5106 331.052 72.8199C331.762 72.1292 332.61 71.7838 333.607 71.7838C334.566 71.7838 335.405 72.1292 336.115 72.8199C336.835 73.5106 337.194 74.3377 337.204 75.3011C337.194 75.9554 337.028 76.5552 336.696 77.0914C336.355 77.6368 335.922 78.064 335.377 78.373C334.842 78.6911 334.252 78.8546 333.607 78.8546Z" fill="black"/>
<path d="M356.84 45.4453H362.872V68.6846C362.863 70.8204 362.401 72.6472 361.498 74.1832C360.585 75.7191 359.321 76.8914 357.698 77.7185C356.084 78.5364 354.193 78.9546 352.044 78.9546C350.079 78.9546 348.318 78.6001 346.75 77.9094C345.182 77.2187 343.937 76.1826 343.024 74.8193C342.101 73.456 341.649 71.7565 341.649 69.7207H347.691C347.7 70.6114 347.903 71.3838 348.29 72.0291C348.677 72.6744 349.212 73.1651 349.895 73.5105C350.586 73.8559 351.38 74.0286 352.274 74.0286C353.243 74.0286 354.073 73.8286 354.746 73.4196C355.419 73.0197 355.936 72.4199 356.296 71.6201C356.646 70.8295 356.831 69.8479 356.84 68.6846V45.4453Z" fill="black"/>
<path d="M387.691 54.5338C387.544 53.1251 386.898 52.0254 385.773 51.2438C384.638 50.4531 383.172 50.0623 381.373 50.0623C380.11 50.0623 379.022 50.2532 378.118 50.6258C377.214 51.0075 376.513 51.5164 376.033 52.1617C375.554 52.807 375.314 53.5432 375.295 54.3703C375.295 55.061 375.461 55.6608 375.784 56.1607C376.107 56.6696 376.54 57.0968 377.103 57.4422C377.656 57.7966 378.274 58.0874 378.948 58.3237C379.63 58.56 380.313 58.76 380.995 58.9236L384.14 59.6961C385.404 59.9869 386.631 60.3778 387.802 60.8776C388.973 61.3684 390.034 61.9955 390.965 62.7498C391.897 63.5042 392.635 64.413 393.179 65.4764C393.723 66.5397 394 67.7848 394 69.2208C394 71.1566 393.502 72.8562 392.496 74.3285C391.491 75.7917 390.043 76.9369 388.143 77.764C386.252 78.582 383.965 79 381.272 79C378.671 79 376.402 78.6002 374.493 77.8004C372.575 77.0097 371.08 75.8463 370.001 74.3194C368.922 72.7926 368.341 70.9294 368.258 68.7391H374.235C374.318 69.8842 374.687 70.8386 375.314 71.6111C375.95 72.3745 376.78 72.938 377.795 73.3197C378.819 73.6923 379.962 73.8832 381.226 73.8832C382.545 73.8832 383.707 73.6832 384.712 73.2924C385.708 72.9016 386.492 72.3564 387.055 71.6475C387.627 70.9476 387.913 70.1206 387.922 69.1754C387.913 68.312 387.654 67.5939 387.156 67.0304C386.649 66.467 385.948 65.9944 385.053 65.6127C384.15 65.231 383.098 64.8856 381.899 64.5857L378.081 63.6223C375.323 62.9225 373.137 61.8592 371.541 60.4323C369.937 59.0054 369.143 57.115 369.143 54.7429C369.143 52.798 369.678 51.0894 370.758 49.6261C371.827 48.1629 373.294 47.0268 375.148 46.2179C377.011 45.4 379.114 45 381.456 45C383.836 45 385.92 45.4 387.719 46.2179C389.517 47.0268 390.929 48.1538 391.952 49.5897C392.976 51.0257 393.511 52.6707 393.539 54.5338H387.691Z" fill="black"/>
</svg>

<svg width="394" height="80" fill="none" xmlns="http://www.w3.org/2000/svg"><path d="M261.919.033h68.628V12.7h-27.224v66.639H289.71V12.7h-27.791V.033ZM149.052.033V12.7h-55.01v20.377h44.239v12.667H94.042v20.928h55.01V79.34H80.43V12.7h-.006V.033h68.628ZM183.32.066h-17.814l63.806 79.306h17.866l-31.907-39.626L247.127.126l-17.815.028-22.96 28.516L183.32.066ZM201.6 56.715l-8.921-11.092-27.224 33.81h17.865l18.28-22.718Z" fill="#000"/><path fill-rule="evenodd" clip-rule="evenodd" d="M80.907 79.339 17.015 0H0v79.306h13.612V16.952l50.195 62.387h17.1Z" fill="#000"/><path d="M333.607 78.855a3.528 3.528 0 0 1-2.555-1.036c-.71-.691-1.061-1.527-1.052-2.518-.009-.963.342-1.79 1.052-2.481a3.528 3.528 0 0 1 2.555-1.036c.959 0 1.798.345 2.508 1.036.72.69 1.079 1.518 1.089 2.481a3.44 3.44 0 0 1-.508 1.79 3.675 3.675 0 0 1-1.319 1.282 3.403 3.403 0 0 1-1.77.482ZM356.84 45.445h6.032v23.24c-.009 2.135-.471 3.962-1.374 5.498-.913 1.536-2.177 2.708-3.8 3.535-1.614.818-3.505 1.237-5.654 1.237-1.965 0-3.726-.355-5.294-1.046-1.568-.69-2.813-1.726-3.726-3.09-.923-1.363-1.375-3.063-1.375-5.098h6.042c.009.89.212 1.663.599 2.308a3.855 3.855 0 0 0 1.605 1.481c.691.346 1.485.519 2.379.519.969 0 1.799-.2 2.472-.61.673-.4 1.19-1 1.55-1.799.35-.79.535-1.772.544-2.935v-23.24ZM387.691 54.534c-.147-1.409-.793-2.509-1.918-3.29-1.135-.79-2.601-1.182-4.4-1.182-1.263 0-2.351.191-3.255.564-.904.382-1.605.89-2.085 1.536-.479.645-.719 1.381-.738 2.208 0 .691.166 1.29.489 1.79.323.51.756.937 1.319 1.282a8.806 8.806 0 0 0 1.845.882c.682.236 1.365.436 2.047.6l3.145.772a21.74 21.74 0 0 1 3.662 1.182 12.966 12.966 0 0 1 3.163 1.872 8.384 8.384 0 0 1 2.214 2.726c.544 1.064.821 2.309.821 3.745 0 1.936-.498 3.635-1.504 5.108-1.005 1.463-2.453 2.608-4.353 3.435-1.891.818-4.178 1.236-6.871 1.236-2.601 0-4.87-.4-6.779-1.2-1.918-.79-3.413-1.954-4.492-3.48-1.079-1.527-1.66-3.39-1.743-5.58h5.977c.083 1.144.452 2.099 1.079 2.871.636.763 1.466 1.327 2.481 1.709 1.024.372 2.167.563 3.431.563 1.319 0 2.481-.2 3.486-.59.996-.391 1.78-.937 2.343-1.646.572-.7.858-1.526.867-2.472-.009-.863-.268-1.581-.766-2.145-.507-.563-1.208-1.036-2.103-1.417a21.606 21.606 0 0 0-3.154-1.027l-3.818-.964c-2.758-.7-4.944-1.763-6.54-3.19-1.604-1.427-2.398-3.317-2.398-5.69 0-1.944.535-3.653 1.615-5.116 1.069-1.463 2.536-2.6 4.39-3.408 1.863-.818 3.966-1.218 6.308-1.218 2.38 0 4.464.4 6.263 1.218 1.798.809 3.21 1.936 4.233 3.372 1.024 1.436 1.559 3.08 1.587 4.944h-5.848Z" fill="#000"/></svg>
